school/img/country/AF.svg

<svg width="13" height="12" viewBox="0 0 13 12" fill="none" xmlns="http://www.w3.org/2000/svg">
<rect width="13" height="12" rx="2" fill="white"/>
<mask id="mask0" mask-type="alpha" maskUnits="userSpaceOnUse" x="0" y="0" width="13" height="12">
<rect width="13" height="12" rx="2" fill="white"/>
</mask>
<g mask="url(#mask0)">
<rect x="6.19043" width="6.80953" height="12" fill="#1AB11F"/>
<path fill-rule="evenodd" clip-rule="evenodd" d="M0 12H4.33333V0H0V12Z" fill="#262626"/>
<path fill-rule="evenodd" clip-rule="evenodd" d="M4.33325 12H8.66658V0H4.33325V12Z" fill="#DC0D18"/>
<path opacity="0.75" d="M5.92851 5.60004C5.92851 5.23185 5.63003 4.93337 5.26184 4.93337C4.89365 4.93337 4.59517 5.23185 4.59517 5.60004H5.92851ZM5.47952 7.5183C5.7741 7.73918 6.19196 7.67945 6.41284 7.38487C6.63373 7.0903 6.57399 6.67244 6.27942 6.45155L5.47952 7.5183ZM6.74137 6.43505C6.45757 6.66962 6.41766 7.08983 6.65223 7.37363C6.88679 7.65743 7.30701 7.69735 7.59081 7.46278L6.74137 6.43505ZM8.40467 5.60004C8.40467 5.23185 8.1062 4.93337 7.73801 4.93337C7.36982 4.93337 7.07134 5.23185 7.07134 5.60004H8.40467ZM4.59517 5.60004C4.59517 6.36396 4.91451 7.09462 5.47952 7.5183L6.27942 6.45155C6.10586 6.32141 5.92851 6.01905 5.92851 5.60004H4.59517ZM7.59081 7.46278C8.11088 7.03294 8.40467 6.33378 8.40467 5.60004H7.07134C7.07134 5.99973 6.90915 6.29638 6.74137 6.43505L7.59081 7.46278Z" fill="white"/>
<path fill-rule="evenodd" clip-rule="evenodd" d="M6.50003 6.4C6.84192 6.4 7.11908 5.86274 7.11908 5.2C7.11908 4.53726 6.84192 4 6.50003 4C6.15814 4 5.88098 4.53726 5.88098 5.2C5.88098 5.86274 6.15814 6.4 6.50003 6.4Z" fill="white" fill-opacity="0.5"/>
</g>
</svg>

<svg width="13" height="12" fill="none" xmlns="http://www.w3.org/2000/svg"><rect width="13" height="12" rx="2" fill="#fff"/><mask id="a" maskUnits="userSpaceOnUse" x="0" y="0" width="13" height="12"><rect width="13" height="12" rx="2" fill="#fff"/></mask><g mask="url(#a)"><path fill="#1AB11F" d="M6.19 0H13v12H6.19z"/><path fill-rule="evenodd" clip-rule="evenodd" d="M0 12h4.333V0H0v12z" fill="#262626"/><path fill-rule="evenodd" clip-rule="evenodd" d="M4.333 12h4.334V0H4.333v12z" fill="#DC0D18"/><path opacity=".75" d="M5.929 5.6a.667.667 0 00-1.334 0H5.93zm-.45 1.918a.667.667 0 00.8-1.066l-.8 1.066zm1.262-1.083a.667.667 0 10.85 1.028l-.85-1.028zM8.405 5.6a.667.667 0 10-1.334 0h1.334zm-3.81 0c0 .764.32 1.495.885 1.918l.8-1.066c-.174-.13-.351-.433-.351-.852H4.595zm2.996 1.863c.52-.43.814-1.13.814-1.863H7.07c0 .4-.162.696-.33.835l.85 1.028z" fill="#fff"/><path fill-rule="evenodd" clip-rule="evenodd" d="M6.5 6.4c.342 0 .62-.537.62-1.2 0-.663-.278-1.2-.62-1.2-.342 0-.619.537-.619 1.2 0 .663.277 1.2.619 1.2z" fill="#fff" fill-opacity=".5"/></g></svg>
